X: 10733
T: Dr. Alasdair Mackenzie
R: reel
M: 4/4
K: Dmajor
|:dA A/A/A defa-|afef dB B/B/B|dA A/A/A defa-|afef d/d/d de:|
fade fade|fade dB B/B/B|fade fade|fade d/d/d de|
fa a/a/a fade|dffe dB B/B/B|dA A/A/A defa-|afef d/d/d de||

